X: 43219
T: With Ourselves
R: reel
M: 4/4
K: Edorian
D|~E3B GE~E2|DEED GEFD|~E3B GE~E2|(3Bcd ed e2ef|
gB~B2 gedB|AF~F2 dBAF|~E3B GE~E2|DEFD E3:|
d|edef ~g2af|ge (3eee dBAF|D2 (3FED ADFA|defd gffd|
edef ~g2af|ge (3eee dBAF|D2 (3FED ADFA|dBAF E3d|
ed (3Bcd ed (3Bcd|gBfB eBdB|AD (3FED A,DFA|deed gfed|
edef ~g2af|ge (3eee dBAF|D2 (3FED ADFA|dBAF E3||

